X:1
T:Title
%%score { ( 1 3 4 ) | ( 2 5 ) }
L:1/8
M:4/4
K:C
V:1 treble nm="Grand Piano"
V:3 treble 
V:4 treble 
V:2 treble 
V:5 treble 
V:1
 z4[Q:1/4=100] G2 G2 | z2 z G G2 G2 | ^G2 c2 [CFA]2 [B,D=G]2 | [CG]2 [CGA]2 [FGB]2 [EGc]2 | %4
 ^c2 z2 B,2 z e | z4 [Ed]4 | [EB]2 [EA]2 [_EG]2 [EA]2 | z4 d4 | G4 G2 G2 | G3 G G2 G2 | %10
 G2 ^F2 d2 [Dd]2 | [Dd]3 [Dcd] [D_Bd]2 [Ge]2 | [^Fd]4[K:bass][K:treble] z4 | %13
 [EA]2 [EG]2 [Ee]3 [Ec] | [FB]2 [FA]2 [Ff]3 [Fd] | [Dg]2 [Ee]2 [Fc]2 [Fd]2 |[M:2/4] [Ec]4 |] %17
V:2
 z4 [CE]2 [B,CE]2 | [CE]3[K:bass] [CE] [F,B,D]2 [E,C]2 | [E,C]2 [E,C]2 D,2 F,2 | E,2 E,2 D,2 C,2 | %4
 z2[K:treble] d2[K:bass] G,,2 z G | B,,2 C,2 ^G,,2 z E | [B,,^G,]2 [C,A,]2 [C,A,]2 [C,A,]2 | %7
 [D,G,]2 [D,G,]2 [D,A,]2 [D,C]2 | [G,B,D]4 G,2 G,2 | [_E,_B,_E]3 [E,B,E] [E,B,D]2 [E,B,^C]2 | %10
 [D,_B,D]2 [D,A,D]2 D2 C2 | _B,3 A, G,2 [G,B,]2 | A,4 [B,,G,]3 [B,,G,] | %13
 [C,G,]2 [C,G,]2 [C,^G,]3 [C,G,] | [C,A,]2 [C,A,]2 [D,A,]3 [C,A,] | %15
 [B,,G,]2 [C,G,]2 [G,,A,]2 [G,,B,]2 |[M:2/4] [C,C]4 |] %17
V:3
 x8 | G4 z4 | x8 | x8 | [FG]4 [Gf]4 | [FGd]2 [EGc]2 B,2 z c | x8 | [DB]2 [_Ec]2 ^F2 z F | x8 | x8 | %10
 x8 | x8 | z2[K:bass] C,2[K:treble] [=Fd]3 [FB] | x8 | x8 | x8 |[M:2/4] x4 |] %17
V:4
 x8 | z2 G,2 z4 | x8 | x8 | z4 z2 C2 | z4 z2 A,2 | x8 | z4 z2 D2 | x8 | x8 | x8 | x8 | %12
 x2[K:bass] x2[K:treble] x4 | x8 | x8 | x8 |[M:2/4] x4 |] %17
V:5
 x8 | A,2 z2[K:bass] z4 | x8 | x8 | B,,4[K:treble][K:bass] z2 A,,2 | z4 z2 A,,2 | x8 | x8 | x8 | %9
 x8 | x8 | x8 | D,2 z2 z4 | x8 | x8 | x8 |[M:2/4] x4 |] %17

